projects/ccf-eui/src/assets/icons/organ-icons/organ-icon-stomach.svg

<svg width="64" height="64" viewBox="0 0 64 64" fill="currentColor" xmlns="http://www.w3.org/2000/svg">
<g clip-path="url(#clip0_1795_433)">
<path d="M47.4454 11.776C38.4854 11.776 41.152 16.1493 36.032 16.192C31.3814 16.192 32.384 7.33865 32.384 7.33865H27.0507C27.0507 7.33865 26.432 15.872 29.6107 19.968C34.752 26.624 35.4987 39.7013 25.344 39.5307C21.0774 39.5307 21.0774 35.392 15.0614 35.392C13.4075 35.3268 11.7615 35.652 10.2567 36.3414C8.75194 37.0308 7.43071 38.0649 6.40002 39.36L10.3894 41.92C10.7255 41.2489 11.2395 40.6831 11.8753 40.2843C12.5111 39.8855 13.2442 39.6691 13.9947 39.6587C15.1227 39.6921 16.1914 40.1711 16.9671 40.9907C17.7427 41.8104 18.1621 42.9039 18.1334 44.032C18.1334 46.6347 14.9334 49.0667 17.0667 53.3333C19.2 57.6 25.3867 59.0933 35.3494 58.1973C44.1387 57.6 52.1387 47.5093 55.6587 36.2667C60.2667 21.3333 56.32 11.776 47.4454 11.776Z" />
</g>
<defs>
<clipPath id="clip0_1795_433">
<rect width="64" height="64" />
</clipPath>
</defs>
</svg>

<svg xmlns="http://www.w3.org/2000/svg" width="64" height="64" fill="currentColor" viewBox="0 0 64 64"><g clip-path="url(#a)"><path d="M47.445 11.776c-8.96 0-6.293 4.373-11.413 4.416-4.65 0-3.648-8.853-3.648-8.853h-5.333s-.619 8.533 2.56 12.629c5.141 6.656 5.888 19.733-4.267 19.563-4.267 0-4.267-4.139-10.283-4.139A10.54 10.54 0 0 0 6.4 39.36l3.99 2.56a4.1 4.1 0 0 1 3.605-2.261 4.266 4.266 0 0 1 4.138 4.373c0 2.603-3.2 5.035-1.066 9.301 2.133 4.267 8.32 5.76 18.282 4.864 8.79-.597 16.79-10.688 20.31-21.93 4.608-14.934.661-24.491-8.214-24.491"/></g><defs><clipPath id="a"><path d="M0 0h64v64H0z"/></clipPath></defs></svg>
